staff/assets/icon/people.svg

<?xml version="1.0" encoding="UTF-8"?>
<svg width="66px" height="46px" viewBox="0 0 66 46" version="1.1" xmlns="http://www.w3.org/2000/svg" xmlns:xlink="http://www.w3.org/1999/xlink">
    <!-- Generator: Sketch 51.1 (57501) - http://www.bohemiancoding.com/sketch -->
    <title>people</title>
    <desc>Created with Sketch.</desc>
    <defs></defs>
    <g id="Page-1" stroke="none" stroke-width="1" fill="none" fill-rule="evenodd">
        <path d="M18.372,44.781 C16.7562926,44.781 15.2993163,44.8721322 12.8941407,45.0878671 C8.03184585,45.5239959 6.71280247,45.560472 4.93619335,45.0389676 C2.30386627,44.2662765 0.972,42.1922722 0.972,38.781 C0.972,30.3244002 8.75526471,23.5901842 18.372,23.481 C27.9424501,23.481 35.772,30.2893042 35.772,38.781 C35.772,42.1922722 34.4401337,44.2662765 31.8078066,45.0389676 C30.0311975,45.560472 28.7121542,45.5239959 23.8498593,45.0878671 C21.4446837,44.8721322 19.9877074,44.781 18.372,44.781 Z M18.372,41.781 C20.099978,41.781 21.6296569,41.8766797 24.1178716,42.0998628 C28.480284,42.4911542 29.7193977,42.5254199 30.9628404,42.1604208 C32.225663,41.7897329 32.772,40.9389678 32.772,38.781 C32.772,32.0466088 26.3715499,26.481 18.3890444,26.4809032 C10.3383245,26.5723886 3.972,32.0806433 3.972,38.781 C3.972,40.9389678 4.518337,41.7897329 5.7811596,42.1604208 C7.02460232,42.5254199 8.26371599,42.4911542 12.6261284,42.0998628 C15.1143431,41.8766797 16.644022,41.781 18.372,41.781 Z" id="Path_28" fill="#FFFFFF" fill-rule="nonzero"></path>
        <path d="M18.372,21.881 C12.3324659,21.7651325 7.472,16.9046665 7.472,10.981 C7.472,10.881 7.472,10.881 7.47227729,10.8521592 C7.58821421,4.82343958 12.46626,-0.019 18.472,-0.019 C24.4865278,-0.019 29.372,4.93831736 29.372,10.981 C29.372,16.9955278 24.4146826,21.881 18.372,21.881 Z M26.372,10.981 C26.372,6.58544734 22.819791,2.981 18.472,2.981 C14.1086224,2.981 10.5563868,6.50730684 10.472,10.881 L10.472,10.981 C10.472,15.2526461 14.0037789,18.7891072 18.3864104,18.8809873 C22.7754278,18.8732338 26.372,15.3240388 26.372,10.981 Z" id="Path_29" fill="#FFFFFF" fill-rule="nonzero"></path>
        <path d="M51.665,45.55 C50.3887843,45.55 49.234371,45.6232936 47.3192301,45.7974669 C43.392802,46.1545577 42.3276433,46.18495 40.8528344,45.7519592 C38.6096573,45.0933822 37.465,43.3089608 37.465,40.45 C37.465,33.4817282 43.8664968,27.95 51.665,27.95 C59.5304119,27.95 65.865,33.4538224 65.865,40.45 C65.865,43.2849874 64.7085915,45.0569402 62.4580304,45.7139683 C60.9788378,46.1458034 59.8943435,46.1194949 55.9623328,45.7815266 C54.0645468,45.6184061 52.9261338,45.55 51.665,45.55 Z M51.665,42.55 C53.0339531,42.55 54.2417328,42.6225743 56.2192447,42.7925475 C59.6617809,43.0884439 60.6631495,43.1127359 61.6173057,42.8341798 C62.5052818,42.5749443 62.865,42.0237518 62.865,40.45 C62.865,35.2117513 57.9599655,30.95 51.665,30.95 C45.4339434,30.95 40.465,35.2438152 40.465,40.45 C40.465,42.0561512 40.8248465,42.6171207 41.6979384,42.8734527 C42.637967,43.1494368 43.6215649,43.1213717 47.0475152,42.8097971 C49.0468898,42.6279631 50.2748502,42.55 51.665,42.55 Z" id="Path_30" fill="#FFFFFF" fill-rule="nonzero"></path>
        <path d="M51.665,27.25 C46.689858,27.1291012 42.665,23.1411685 42.665,18.25 C42.665,18.15 42.665,18.15 42.665425,18.1142958 C42.7850672,13.0893222 46.7608646,9.15 51.8007042,9.15042499 C56.8645618,9.27099303 60.8835215,13.2899527 60.764575,18.2857042 C60.6449328,23.3106778 56.6691354,27.25 51.665,27.25 Z M57.765425,18.2142958 C57.8441529,14.9077217 55.1678772,12.231446 51.765,12.15 C48.399691,12.15 45.745671,14.7796711 45.665,18.15 L45.665,18.25 C45.665,21.4841002 48.3590663,24.1593634 51.6833008,24.2499741 C55.0399261,24.2404602 57.684476,21.6141524 57.765425,18.2142958 Z" id="Path_31" fill="#FFFFFF" fill-rule="nonzero"></path>
    </g>
</svg>

<svg width="66" height="46" viewBox="0 0 66 46" xmlns="http://www.w3.org/2000/svg"><title>people</title><g id="Page-1" fill="#FFF"><path d="M18.372 44.781c-1.616 0-3.073.091-5.478.307-4.862.436-6.181.472-7.958-.049-2.632-.773-3.964-2.847-3.964-6.258 0-8.457 7.783-15.19 17.4-15.3 9.57 0 17.4 6.808 17.4 15.3 0 3.411-1.332 5.485-3.964 6.258-1.777.521-3.096.485-7.958.049-2.405-.216-3.862-.307-5.478-.307zm0-3c1.728 0 3.258.096 5.746.319 4.362.391 5.601.425 6.845.06 1.263-.37 1.809-1.221 1.809-3.379 0-6.734-6.4-12.3-14.383-12.3-8.05.091-14.417 5.6-14.417 12.3 0 2.158.546 3.009 1.81 3.38 1.243.364 2.482.33 6.844-.061 2.488-.223 4.018-.319 5.746-.319z" id="Path_28"/><path d="M18.372 21.881c-6.04-.116-10.9-4.976-10.9-10.9v-.129c.116-6.029 4.994-10.871 11-10.871 6.015 0 10.9 4.957 10.9 11 0 6.015-4.957 10.9-11 10.9zm8-10.9c0-4.396-3.552-8-7.9-8-4.363 0-7.916 3.526-8 7.9v.1c0 4.272 3.532 7.808 7.914 7.9 4.39-.008 7.986-3.557 7.986-7.9z" id="Path_29"/><path d="M51.665 45.55c-1.276 0-2.43.073-4.346.247-3.926.358-4.991.388-6.466-.045-2.243-.659-3.388-2.443-3.388-5.302 0-6.968 6.401-12.5 14.2-12.5 7.865 0 14.2 5.504 14.2 12.5 0 2.835-1.156 4.607-3.407 5.264-1.48.432-2.564.405-6.496.068-1.897-.164-3.036-.232-4.297-.232zm0-3c1.369 0 2.577.073 4.554.243 3.443.295 4.444.32 5.398.041.888-.26 1.248-.81 1.248-2.384 0-5.238-4.905-9.5-11.2-9.5-6.231 0-11.2 4.294-11.2 9.5 0 1.606.36 2.167 1.233 2.423.94.276 1.924.248 5.35-.063 1.999-.182 3.227-.26 4.617-.26z" id="Path_30"/><path d="M51.665 27.25c-4.975-.12-9-4.109-9-9v-.136c.12-5.025 4.096-8.964 9.136-8.964 5.064.121 9.083 4.14 8.964 9.136-.12 5.025-4.096 8.964-9.1 8.964zm6.1-9.036c.08-3.306-2.597-5.983-6-6.064-3.365 0-6.02 2.63-6.1 6v.1c0 3.234 2.694 5.91 6.018 6 3.357-.01 6.001-2.636 6.082-6.036z" id="Path_31"/></g></svg>
